Papirus/22x22/panel/mintupdate-updates-available.svg

<?xml version="1.0" encoding="UTF-8" standalone="no"?>
<svg
   xmlns:dc="http://purl.org/dc/elements/1.1/"
   xmlns:cc="http://creativecommons.org/ns#"
   xmlns:rdf="http://www.w3.org/1999/02/22-rdf-syntax-ns#"
   xmlns:svg="http://www.w3.org/2000/svg"
   xmlns="http://www.w3.org/2000/svg"
   width="22"
   viewBox="0 0 6.208889 6.208889"
   height="22"
   id="svg2"
   version="1.1">
  <defs
     id="defs13" />
  <metadata
     id="metadata18">
    <rdf:RDF>
      <cc:Work
         rdf:about="">
        <dc:format>
                    image/svg+xml
                </dc:format>
        <dc:type
           rdf:resource="http://purl.org/dc/dcmitype/StillImage" />
        <dc:title></dc:title>
      </cc:Work>
    </rdf:RDF>
  </metadata>
  <path
     style="fill:#ffffff;fill-opacity:1;fill-rule:evenodd;stroke:none;opacity:1"
     d="M 11 3 C 8.8518754 4.969778 5.234625 6.7048889 4 7 C 4 12.333333 6.6250001 18.111111 11 19 C 15.375 18.111111 18 12.333333 18 7 C 16.765375 6.7048889 13.148125 4.969778 11 3 z M 10 6 L 12 6 L 12 8 L 10 8 L 10 6 z M 9 9 L 12 9 L 12 14 L 13 14 L 13 16 L 9 16 L 9 14 L 10 14 L 10 11 L 9 11 L 9 9 z "
     transform="scale(0.28222222,0.28222222)"
     id="path4340" />
  <g
     transform="matrix(0.28222222,0,0,0.28222222,-10.6045,0.2470856)"
     id="g6">
    <g
       transform="matrix(0.42297932,0,0,0.42297932,-11.083711,3.1945516)"
       id="g8">
      <!--color: #004794-->
    </g>
  </g>
  <g
     transform="matrix(0.28222222,0,0,0.28222222,-10.392658,1.2296495)"
     style="stroke-dasharray:none;stroke-opacity:1;stroke-miterlimit:4;stroke:#000;stroke-width:1"
     id="g10">
    <g
       transform="matrix(0.42297932,0,0,0.42297932,-11.083711,3.1945516)"
       style="stroke-width:2.364"
       id="g12">
      <!--color: #004794-->
    </g>
  </g>
  <g
     id="g4319"
     transform="matrix(0.11937416,0,0,0.11937416,-19.908311,0.17052592)">
    <!--color: #004794-->
  </g>
  <g
     id="g4323"
     style="stroke:#000000;stroke-width:2.36400008;stroke-miterlimit:4;stroke-dasharray:none;stroke-opacity:1"
     transform="matrix(0.11937416,0,0,0.11937416,-19.696469,1.1530898)">
    <!--color: #004794-->
  </g>
  <circle
     r="0.56444442"
     cy="5.0799999"
     cx="5.0799999"
     id="path4141"
     style="opacity:1;fill:#5294e2;fill-opacity:1;stroke:none;stroke-width:2;stroke-linecap:round;stroke-linejoin:round;stroke-miterlimit:4;stroke-dasharray:none;stroke-opacity:1" />
</svg>

<?xml version="1.0" encoding="UTF-8" standalone="no"?>
<svg id="svg2" xmlns:rdf="http://www.w3.org/1999/02/22-rdf-syntax-ns#" xmlns="http://www.w3.org/2000/svg" height="22" width="22" version="1.1" xmlns:cc="http://creativecommons.org/ns#" viewBox="0 0 6.208889 6.208889" xmlns:dc="http://purl.org/dc/elements/1.1/">
 <metadata id="metadata18">
  <rdf:RDF>
   <cc:Work rdf:about="">
    <dc:format>image/svg+xml</dc:format>
    <dc:type rdf:resource="http://purl.org/dc/dcmitype/StillImage"/>
    <dc:title/>
   </cc:Work>
  </rdf:RDF>
 </metadata>
 <path id="path4340" d="m11 3c-2.1481 1.9698-5.7654 3.7049-7 4 0 5.333 2.625 11.111 7 12 4.375-0.889 7-6.667 7-12-1.235-0.2951-4.852-2.0302-7-4zm-1 3h2v2h-2v-2zm-1 3h3v5h1v2h-4v-2h1v-3h-1v-2z" fill-rule="evenodd" transform="scale(.28222)" fill="#fff"/>
 <g id="g6" transform="matrix(.28222 0 0 .28222 -10.604 .24709)">
  <g id="g8" transform="matrix(.42298 0 0 .42298 -11.084 3.1946)"><!--color: #004794--></g>
 </g>
 <g id="g10" transform="matrix(.28222 0 0 .28222 -10.393 1.2296)" stroke="#000">
  <g id="g12" stroke-width="2.364" transform="matrix(.42298 0 0 .42298 -11.084 3.1946)"><!--color: #004794--></g>
 </g>
 <g id="g4319" transform="matrix(.11937 0 0 .11937 -19.908 .17053)"><!--color: #004794--></g>
 <g id="g4323" transform="matrix(.11937 0 0 .11937 -19.696 1.1531)" stroke="#000" stroke-width="2.364"><!--color: #004794--></g>
 <circle id="path4141" cy="5.08" cx="5.08" r=".56444" fill="#5294e2"/>
</svg>
